X: 1
T: Holloway Road Fling, The
Z: Hiroyuki Yamada
R: reel
M: 4/4
L: 1/8
D: Kieran O'Hare & John Skelton "Double-Barrelled"
N: This is the reel setting of "The Cow that Ate the Blanket" or "The Cat that Ate the Candle."
Z: Contributed 20040716221221 by Hiroyuki Yamada slainte_mha@infoseek.jp
K: Gmaj
A|B2BA BGEF|GBAF GABd|g2ge dBGA|BAAG A2GA|
B2BA BGEF|GBAF GABd|g2ge dBGB|A2GF G3:|
d|g3f efgf|eaag fedf|g2ge dBGA|BAAG A2GA|
B2BA BGEF|GBAF GABd|g2ge dBGB|A2GF G3:|
